svgs/sharp-light/caravan-simple.svg

<svg xmlns="http://www.w3.org/2000/svg" viewBox="0 0 640 512"><!--! Font Awesome Pro 6.6.0 by @fontawesome - https://fontawesome.com License - https://fontawesome.com/license (Commercial License) Copyright 2024 Fonticons, Inc. --><path d="M32 64l0 320 69.5 0c13.2-37.3 48.7-64 90.5-64s77.4 26.7 90.5 64L544 384l0-192c0-70.7-57.3-128-128-128L32 64zM96 416l-64 0L0 416l0-32L0 64 0 32l32 0 384 0c88.4 0 160 71.6 160 160l0 192 48 0 16 0 0 32-16 0-48 0-32 0-256 0c0 53-43 96-96 96s-96-43-96-96zM256 160l-128 0 0 64 128 0 0-64zM128 128l128 0 32 0 0 32 0 64 0 32-32 0-128 0-32 0 0-32 0-64 0-32 32 0zm224 32l0 64 64 0 0-64-64 0zm-32-32l32 0 64 0 32 0 0 32 0 64 0 32-32 0-64 0-32 0 0-32 0-64 0-32zM256 416a64 64 0 1 0 -128 0 64 64 0 1 0 128 0z"/></svg>

<svg xmlns="http://www.w3.org/2000/svg" viewBox="0 0 640 512"><!--! Font Awesome Pro 6.4.2 by @fontawesome - https://fontawesome.com License - https://fontawesome.com/license (Commercial License) Copyright 2023 Fonticons, Inc. --><path d="M32 64V384h69.5c13.2-37.3 48.7-64 90.5-64s77.4 26.7 90.5 64H544V192c0-70.7-57.3-128-128-128H32zM96 416H32 0V384 64 32H32 416c88.4 0 160 71.6 160 160V384l48 0h16v32H624l-48 0H544 288c0 53-43 96-96 96s-96-43-96-96zM256 160H128v64H256V160zM128 128H256h32v32 64 32H256 128 96V224 160 128h32zm224 32v64h64V160H352zm-32-32h32 64 32v32 64 32H416 352 320V224 160 128zM256 416a64 64 0 1 0 -128 0 64 64 0 1 0 128 0z"/></svg>
